assets/icons/date_icon.svg

<svg width="14" height="14" viewBox="0 0 14 14" fill="none" xmlns="http://www.w3.org/2000/svg">
<path fill-rule="evenodd" clip-rule="evenodd" d="M7.01384 2.04297C11.0715 2.04297 12.4243 3.39514 12.4243 7.4528C12.4243 11.5105 11.0715 12.8626 7.01384 12.8626C2.95675 12.8626 1.604 11.5105 1.604 7.4528C1.604 3.39514 2.95675 2.04297 7.01384 2.04297Z" stroke="#525F77" stroke-width="0.875" stroke-linecap="round" stroke-linejoin="round"/>
<path d="M1.76465 5.43815H12.2693" stroke="#525F77" stroke-width="0.875" stroke-linecap="round" stroke-linejoin="round"/>
<path d="M9.58348 7.73503H9.58873" stroke="#525F77" stroke-width="0.875" stroke-linecap="round" stroke-linejoin="round"/>
<path d="M7.01707 7.73503H7.02232" stroke="#525F77" stroke-width="0.875" stroke-linecap="round" stroke-linejoin="round"/>
<path d="M4.44578 7.73503H4.45103" stroke="#525F77" stroke-width="0.875" stroke-linecap="round" stroke-linejoin="round"/>
<path d="M9.58348 9.98112H9.58873" stroke="#525F77" stroke-width="0.875" stroke-linecap="round" stroke-linejoin="round"/>
<path d="M7.01707 9.98112H7.02232" stroke="#525F77" stroke-width="0.875" stroke-linecap="round" stroke-linejoin="round"/>
<path d="M4.44578 9.98112H4.45103" stroke="#525F77" stroke-width="0.875" stroke-linecap="round" stroke-linejoin="round"/>
<path d="M9.3527 1.19531V3.09815" stroke="#525F77" stroke-width="0.875" stroke-linecap="round" stroke-linejoin="round"/>
<path d="M4.68083 1.19531V3.09815" stroke="#525F77" stroke-width="0.875" stroke-linecap="round" stroke-linejoin="round"/>
</svg>

<svg width="14" height="14" fill="none" xmlns="http://www.w3.org/2000/svg"><path clip-rule="evenodd" d="M7.014 2.043c4.058 0 5.41 1.352 5.41 5.41s-1.352 5.41-5.41 5.41c-4.057 0-5.41-1.352-5.41-5.41s1.353-5.41 5.41-5.41z" stroke="#525F77" stroke-width=".875" stroke-linecap="round" stroke-linejoin="round"/><path d="M1.765 5.438h10.504M9.583 7.735h.006M7.017 7.735h.005M4.446 7.735h.005M9.583 9.981h.006M7.017 9.981h.005M4.446 9.981h.005M9.353 1.195v1.903M4.68 1.195v1.903" stroke="#525F77" stroke-width=".875" stroke-linecap="round" stroke-linejoin="round"/></svg>
